icons/align-center.svg

<svg xmlns="http://www.w3.org/2000/svg" viewBox="0 0 24 24">
    <g>
        <path fill="none" d="M0 0h24v24H0z"/>
        <path d="M3 4h18v2H3V4zm2 15h14v2H5v-2zm-2-5h18v2H3v-2zm2-5h14v2H5V9z"/>
    </g>
</svg>

<svg viewBox="0 0 24 24" fill="currentColor" xmlns="http://www.w3.org/2000/svg"><path d="M3 4H21V6H3V4ZM5 19H19V21H5V19ZM3 14H21V16H3V14ZM5 9H19V11H5V9Z"/></svg>
